src/assets/images/services/infura.svg

<svg width="36" height="36" viewBox="0 0 36 36" fill="none" xmlns="http://www.w3.org/2000/svg">
<rect width="36" height="36" fill="white"/>
<circle cx="18" cy="18" r="18" fill="#FE6949"/>
<path d="M8.06892 8.20728V11.0668L14.9004 10.3632H17.422V14.9921L13.176 16.2908L7.42322 17.6784L8.27728 20.474L13.7904 18.3557L17.422 17.2462V24.8444H14.9004L8.06892 24.1404V27H28.9312V24.1404L22.0996 24.8444H19.5778V17.2462L23.1915 18.35L28.723 20.474L29.5767 17.6784L23.8395 16.2949L19.5778 14.9921V10.3632H22.0996L28.9312 11.0668V8.20728H8.06892Z" fill="black"/>
</svg>

<svg xmlns="http://www.w3.org/2000/svg" width="36" height="36" fill="none"><path fill="#fff" d="M0 0h36v36H0z"/><circle cx="18" cy="18" r="18" fill="#FE6949"/><path fill="#000" d="M8.069 8.207v2.86l6.831-.704h2.522v4.63l-4.246 1.298-5.753 1.387.854 2.796 5.513-2.118 3.632-1.11v7.598H14.9L8.07 24.14V27H28.93v-2.86l-6.831.704h-2.522v-7.598l3.614 1.104 5.531 2.124.854-2.796-5.738-1.383-4.261-1.303v-4.629H22.1l6.831.704v-2.86z"/></svg>
